!!!!SEGMENT: pl-wumfc--n53446--001-025_moniuszko-stanislaw--hrabina-no-20-kwartet.krn
!!!cenid: 18xx:4112
!!!COM: Moniuszko, Stanisław
!!!COM-rismID: pe30008351
!!!CDT: 1819/05/05-1872/06/04
!!!CNT: Polish
!!!OPR: Hrabina
!!!OTL: No. 20. Kwartet
!!!OMV: 025
!!!PDT:
!!!AGN:
!!!SMS-siglum: PL-Wumfc
!!!SMS-shelfmark: N53446
!!!SMS-shelfwork: 001-025 M
!!!SMS-variant:
!!!SMS-altvar:
!!!NIFC-rismSourceID: 1001165649
!!!NIFC-rismChildID: 1001165649
!!!NIFC-islandoraID: pl-wumfc:6884
!!!URL-pdf-islandora: https://repozytorium.nifc.pl/islandora/object/pl-wumfc%3A6884/datastream/PDF/view
!!!URL-scan: https://polish.musicsources.pl/pl/lokalizacje/galeria/druki-muzyczne/12579-hrabina @EN{Scan on Polish Music Sources Website} @PL{Skany w portalu Dziedzictwo Muzyki Polskiej w otwartym dostępie}
!!!ONB-nifc:
!!!AIN: 1 piano
!!!key: E
**kern	**kern	**text	**dynam
*part1	*part1	*part1	*part1
*staff2	*staff1	*staff1	*
*I"[Piano.]	*I"[Piano.]	*	*
*>[A,B,B1,B,B2,C]	*>[A,B,B1,B,B2,C]	*	*
*>A	*>A	*	*
*Ipiano	*Ipiano	*	*
*ICklav	*ICklav	*	*
*clefF4	*clefG2	*	*
*k[f#c#g#d#]	*k[f#c#g#d#]	*	*
*E:	*E:	*	*
*M4/4	*M4/4	*	*
*met(c)	*met(c)	*	*
=1	=1	=1	=1
!!LO:TX:B:a:t=Moderato.
!	!LO:TX:t=P:problem:cały tekst zapisany ponad pięciolinią	!	!
8E 8EE/	8ee 8b 8g# 8e/	.	f
8r	8r	.	.
8.G#L 8.E'\	8.eL 8.B'/	.	p
16G#Jk 16E'\	16eJk 16B'/	.	.
8G# 8E\	8e 8B/	.	.
8r	8r	.	.
8G# 8E\	8e 8B/	.	.
8r	8r	.	.
=2	=2	=2	=2
*	*Xtuplet	*	*
8EE/	(12g#\L	Hrab:	.
.	12b\	.	.
8r	.	.	.
.	12ee\J	.	.
8BL 8E\	8gg#\L)	Patrz	.
16r	16r	.	.
16BJk 16E\	16gg#'\Jk	no	.
8c# 8A#X 8E\	(4gg#\	Bro-	.
8r	.	.	.
8d# 8An 8E\	8ff#\)	-niu	.
8r	8r	.	.
=3	=3	=3	=3
8EE/	(12ee\L	on	.
.	12gg#\	.	.
8r	.	.	.
.	12bb\J	.	.
8eL 8B 8G#\	8eee\L)	.	.
16r	16r	.	.
16eJk 16B 16G#\	16eeeJk 16ee'\	po-	.
8e 8B 8G#\	(4.eee 4.ee\	-wró-	.
8r	.	.	.
8e 8B#X 8G#\	.	.	.
8r	8ddd#\)	-cił,	.
!!LO:LB:g=original
=4	=4	=4	=4
8E\	(12ddd#\L	sto-	.
.	12ccc#\	.	.
8r	.	.	.
.	12bb#X\J	-kroć	.
8c#L 8A 8F# 8E\	8ccc#\L)	mil-	.
16r	16r	.	.
16c#Jk 16A 16F# 16E\	16gg#\Jk	.	.
8c# 8A 8F# 8E\	(4bbn\	.	.
8r	.	.	.
8c# 8F# 8E\	8aa\L)	.	.
8r	16r	.	.
.	16gg#\Jk	-szy,	.
=5	=5	=5	=5
8BB/	(12gg#\L	a	.
.	12ff#\	.	.
8r	.	.	.
.	12ee#X\J	.	.
8BL 8D#\	8ff#\L)	ten	.
16r	16r	.	.
16BJk 16F#\	16dd#'\Jk	.	.
*Xtuplet	*	*	*
12B\L	4b\	sam,	.
12d#\	.	.	.
12c#\J	.	.	.
12B\L	4r	.	.
12A\	.	.	.
12F#\J	.	.	.
=6	=6	=6	=6
8E\	(12g#\L	on	.
.	12b\	.	.
8r	.	.	.
.	12ee\J	.	.
8BL 8E\	8gg#\L)	.	.
16r	16r	.	.
16BJk 16E\	16gg#'\Jk	co	.
8c# 8B 8E\	(4gg#\	serca	.
8r	.	.	.
8d# 8A 8E\	8ff#\)	nam za-	.
8r	8r	.	.
!!LO:LB:g=original
=7	=7	=7	=7
8E\	(12ee\L	.	.
.	12gg#\	-smu-	.
8r	.	.	.
.	12bb\J	-cił	.
8e 8B 8G#\	8eee\L)	.	.
8r	16r	.	.
.	16eeeJk 16ee\	.	.
8GG#/	(4.eee 4.ee\	znowu	.
8r	.	.	.
8e 8B#X 8G#\	.	.	.
8r	8ddd# 8dd#\)	.	.
=8	=8	=8	=8
8AA/	(12ccc#L 12cc#\	ra-	.
.	12b\	.	.
8r	.	.	.
.	12a\J	.	.
8e 8c# 8F#\	12g#/L	.	.
.	12f#/	.	.
8r	.	.	.
.	12e/J	.	.
8BB/	12d#/L	-dość	.
.	12f#/	.	.
8r	.	.	.
.	12a/J	.	.
8d# 8B 8F#\	8cc#\L	da-	.
8r	8b\J	-je	.
=9	=9	=9	=9
8E\	12e/	nam.	.
.	12bb\L	.	.
8r	.	.	.
.	12gg#\J	.	.
8e 8B 8G#\	12ee\L	.	.
.	12b\	.	.
8r	.	.	.
.	12g#\J	.	.
8EE/	8e/)	.	.
8r	8r	.	.
8G#^\L	4r	.	.
16r	.	.	.
16G#'\Jk	.	.	.
!!LO:LB:g=original
=10	=10	=10	=10
8GG#/	(12gg#\L	Patrz!	.
.	12aa\	.	.
8r	.	.	.
.	12gg#\J	.	.
8f#L 8B#X 8G#\	12ff#\L	twarz	.
.	12ee\	.	.
16r	.	.	.
.	12dd#\J)	.	.
16f#Jk 16B# 16G#\	.	.	.
!LO:TX:t=P:problem:błędne wyświetlanie górnego łuku	!	!	!
(4f# 4c# (4A\	(4cc#\	je-	.
8f# 8d# 8G#\))	8b#X\)	-go dawniej	.
8r	8r	.	.
=11	=11	=11	=11
8C#/	(12cc#\L	smę-	.
.	12dd#\	.	.
8r	.	.	.
.	12ee\J	-tna,	.
8f#L 8c# 8A\	12ff#\L	.	.
.	12gg#\	.	.
16r	.	.	.
.	12aa\J)	.	.
16f#Jk 16c# 16A\	.	.	.
4e 4c# 4G#\	(4gg#\	.	.
8f# 8c# 8A\	8ccc#\)	.	.
8r	8r	.	.
=12	=12	=12	=12
*	*^	*	*
8GG#/	(12gg#\L	2ryy	dzi-	.
.	12aa\	.	-siaj	.
8r	.	.	.	.
.	12gg#\J	.	.	.
8f#L 8B#X 8G#\	12ff#\L	.	ta-	.
.	12ee\	.	.	.
16r	.	.	.	.
.	12dd#\J)	.	-kiem	.
16f#Jk 16B# 16G#\	.	.	.	.
([4f# 4c# (4A\	8cc#/L	4cc#\	ży-	.
.	8ee/	.	-ciem	.
8f#] 8d# 8G#\))	8.gg#/	8b#X\	.	.
8r	.	8r	.	.
.	16ff#/Jk	.	.	.
!!LO:LB:g=original
=13	=13	=13	=13	=13
8C# 8CC#/	12cc#\L	(>4ee/	tli,	.
.	12gg#\	.	.	.
8r	.	.	.	.
.	12ff#\J	.	.	.
8e 8c# 8G#\	12ee\L	4ryy	.	.
.	12dd#\	.	.	.
8r	.	.	.	.
.	12cc#\J	.	.	.
8D# 8DD#/	12bn\L	2ryy	.	.
.	12cc#\	.	.	.
8r	.	.	.	.
.	12b\J	.	.	.
8B 8A 8F#\	12a\L	.	.	.
.	12g#\	.	.	.
8r	.	.	.	.
.	12f#\J)	.	.	.
*	*v	*v	*	*
=14	=14	=14	=14
8EE/	(16e/LL	czo-	.
.	16g#/	.	.
8r	16b/	.	.
.	16ee/JJ	.	.
8eL 8B 8G#\	8gg#\L)	-ło	.
16r	16r	.	.
16eJk 16B 16G#\	16gg#\Jk	zdo-	.
8e 8B 8G# 8E\	(4.gg#\	-bią	.
8r	.	.	.
8d# 8B 8A\	.	.	.
8r	8ff#\)	.	.
=15	=15	=15	=15
8E\	(16ee\LL	.	.
.	16gg#\	.	.
8r	16bb\	.	.
.	16eee\JJ	.	.
8e 8B 8G#\	8ggg#\L)	męz-	.
8r	16r	.	.
.	16ggg#Jk 16gg#\	-twa	.
8GG#/	(4.ggg# 4.gg#\	piętna	.
8r	.	.	.
8f# 8B#X 8G#\	.	.	.
8r	8fff# 8ff#\)	.	.
!!LO:PB:g=original
=16	=16	=16	=16
8AA/	(12ff#\L	w o-	.
.	12ee\	-ku	.
8r	.	.	.
.	12dd#\J	.	.
8f# 8c# 8A\	12cc#\L	ja-	.
.	12b\	.	.
8r	.	.	.
.	12a\J	-ka	.
8BB/	12g#t/L	zac-	.
.	12f#/	.	.
8r	.	.	.
.	12g#/J	-na	.
8d# 8B 8F#\	12a/L	du-	.
.	12f#/	.	.
8r	.	.	.
.	12b/J	-sza	.
=17	=17	=17	=17
8E\	12e/	tkwi.	.
.	12bb\L	.	.
8r	.	.	.
.	12gg#\J	.	.
8e 8B 8G#\	12ee\L	.	.
.	12b\	.	.
8r	.	.	.
.	12g#\J	.	.
8E 8EE/	8e/)	.	.
8r	8r	.	.
4r	4r	.	.
*kcancel	*kcancel	*	*
=18||	=18||	=18||	=18||
*k[f#c#g#]	*k[f#c#g#]	*	*
12eL 12c# 12A'\	4.ee\	Dz: Gdy-	pp
12e 12c# 12A'\	.	.	.
12eJ 12c# 12A'\	.	.	.
8e 8c# 8A'\	.	.	.
8ryy	8cc#\	-bym	.
8f# 8d 8A\	8b\L	wdów-	.
8r	8dd\	-kę	.
8g# 8d 8A\	8g#\	kie-	.
8r	8b\J	-dy	.
!!LO:LB:g=original
=19	=19	=19	=19
12eL 12c# 12A\	4a/	rzu-	.
12e 12c# 12A\	.	.	.
12eJ 12c# 12A\	.	.	.
8e 8c# 8A\	8a/	-cił,	.
8r	8r	.	.
8e 8c# 8A\	4r	.	.
8r	.	.	.
8e#X 8c# 8A\	8a\L	bez	.
8r	8cc#\J	in-	.
=20	=20	=20	=20
12BL 12F# 12D\	4.b\	-try-	.
12B 12F# 12D\	.	.	.
12BJ 12F# 12D\	.	.	.
8B 8D 8BB\	.	.	.
8r	8dd\	-gi	.
8B 8E 8C#\	4cc#\	tęsk-	.
8r	.	.	.
8B 8F# 8D\	4b\	-nił	.
8r	.	.	.
=21	=21	=21	=21
*	*^	*	*
12c#L 12E\	4ee/	12aL 12e\	sam,	.
12d 12E\	.	12b 12e\	.	.
12c#J 12E\	.	12aJ 12e\	.	.
8B 8E\	4r	8g# 8e\	.	.
8r	.	8r	.	.
8B 8A\	2r	8f# 8d\	.	.
8r	.	8r	.	.
8G# 8E\	.	8e 8d\	.	.
8r	.	8r	.	.
*	*v	*v	*	*
!!LO:LB:g=original
=22	=22	=22	=22
12eL 12c# 12A\	4.ee\	do tej	.
12e 12c# 12A\	.	.	.
12eJ 12c# 12A\	.	.	.
8e 8c# 8A\	.	.	.
8r	8cc#\	ma-	.
8f# 8d 8A\	8b\L	-łej	.
8r	8dd\	bym	.
8g# 8d 8A\	8.cc#\	się	.
8r	.	.	.
.	16b\Jk	.	.
=23	=23	=23	=23
12eL 12c# 12A\	4b\	zwró-	.
12e 12c# 12A\	.	.	.
12eJ 12c# 12A\	.	.	.
8e 8c# 8A\	4a/	-cił,	.
8r	.	.	.
8e 8c# 8A\	4r	.	.
8r	.	.	.
8A 8E#X 8C#\	8.a/L	ta-	.
8r	.	.	.
.	16a/Jk	-kich	.
=24	=24	=24	=24
*	*^	*	*
12dL 12A 12F# 12D\	[4ff#/	12aL 12f#\	ca-	.
12d 12A 12F# 12D\	.	12a 12f#\	.	.
12dJ 12A 12F# 12D\	.	12aJ 12f#\	.	.
8B 8F# 8D 8BB\	(12ff#/L]	8b 8f#\	-ca	.
.	12ee/	.	.	.
8r	.	8r	.	.
.	12dd/J	.	.	.
4r	12cc#t/L	4ryy	ma-	.
.	12b/	.	.	.
.	12cc#/J	.	.	.
4d 4B 4E\	12dd/L	4g#\	-ło	.
.	12b/	.	.	.
.	12ee;/J)	.	.	.
*	*v	*v	*	*
=25	=25	=25	=25
12c#L 12A'\	12a'\L	znam.	.
12e'\	12ee'\	.	.
12c#'\J	12cc#'\J	.	.
8A'\	8a'/	.	.
8r	8r	.	.
4A 4AA^^\	4aa 4a^^\	.	f
4B 4BB^^\	4bb 4b^^\	.	.
!!LO:LB:g=original
=26	=26	=26	=26
12c#L 12C#^^\	12ccc#L 12cc#^^\	.	.
12c# 12C#'\	12ccc# 12cc#'\	.	.
12c#J 12C#'\	12ccc#J 12cc#'\	.	.
8c# 8C#'\	8ccc# 8cc#'\	Gdy	.
8r	16r	.	.
.	16cc#\	fi-	.
4c#\	8cc#L 8g# 8e#X/	-lut-	p
.	8cc#/J	-ka,	.
4cn\	8ddL 8a 8f#/	ni-	.
.	8dd/J	-by	.
=27	=27	=27	=27
*	*^	*	*
12B'\L	(2dd#X/	12aL 12f#\	smęt-	.
12B'\	.	12a 12f#\	.	.
12B'\J	.	12aJ 12f#\	.	.
4B'\	.	4a 4f#\	.	.
4E 4EE^^/	4ee^^ 4g# 4e/)	4ryy	-na	.
4E#X 4EE#X^^/	8ee#XL 8e#X^^/	4ryy	tak	.
.	8ee#/J	.	jej	.
*	*v	*v	*	*
=28	=28	=28	=28
12F#L 12FF#'/	12ff#L 12f#^^\	w ocz-	f
12F# 12FF#'/	12ff# 12f#'\	.	.
12F#J 12FF#'/	12ff#J 12f#'\	.	.
8F# 8FF#'/	8.ff#L 8.f#'\	-ku	.
8r	.	.	.
.	16f#\Jk	.	p
4e 4c#'\	8.g#/L	dja-	.
.	16b/Jk	.	.
4e 4c# 4F#'\	8.a#X/L	.	.
.	16cc#/Jk	-blik	.
=29	=29	=29	=29
8d#X 8B\	4b\	tkwi,	.
8r	.	.	.
12B'\L	4r	.	.
12B'\	.	.	.
12B'\J	.	.	.
2B\	4r	.	.
.	8.b\L	że	.
.	16b\Jk	na	.
!!LO:LB:g=original
=30	=30	=30	=30
*^	*^	*	*
!	!	!LO:TX:i:b:t=dolce	!	!	!
(2B/	1BB	(4.ee 4.g#\	2ryy	praw-	.
.	.	8g# 8e/	.	-dę	.
2c#/	.	4a/	2e\	jest	.
.	.	8.g#/L	.	po-	.
.	.	16a/Jk	.	-nęt-	.
*v	*v	*	*	*	*
=31	=31	=31	=31	=31
2A 2BB\	2cc#/	2d#X\	-na	.
8G# 8BB\)	8b/)	8e\	le	.
8r	8r	8ryy	.	.
!	!	!LO:TX:t=P:problem:tekst francuski wpisany kursywą	!	!
4F# 4BB\	8.b/L	4d#\	dia-	.
.	16a/Jk	.	-ble	.
*	*v	*v	*	*
=32	=32	=32	=32
8G#L 8E\	8g#L 8e/	m'em-	.
16r	16r	.	.
16G#Jk 16E\	16g#Jk 16e/	-por-	.
8F#L 8BB\	8bL 8d#X/	.	.
16r	16r	.	.
16F#Jk 16BB\	16bJk 16d#/	-tel	.
8EL 8C#\	8e/L	est	.
16r	16r	.	.
16EJk 16C#\	16e/Jk	elle	.
8GG#/L	8g#L 8e 8B/	gen-	.
16r	16r	.	.
16GG#/Jk	16g#Jk 16e 16B/	-til-	.
=33	=33	=33	=33
*	*^	*	*
(4AA/	[2f# 2e/	4c#\	-le!	.
4AA#X/	.	4cn\	.	.
8BB/)	8f#/]	8d#X 8B\	.	.
8r	8r	8f#L 8d#\	.	.
(4B\	8b/L	8f# 8d#\	Kaz: Jam	.
.	8b/J	8f#J 8d#\	to	.
*	*v	*v	*	*
!!LO:PB:g=original
=34||	=34||	=34||	=34||
*k[f#c#g#d#]	*k[f#c#g#d#]	*	*
*	*^	*	*
(2A#X\)	4.cc#/	8r	ho-	.
.	.	8f#L 8e\	.	<
.	.	8f# 8e\	.	.
.	8cc#/	8f#J 8e\	-żem	.
2An\	4.dd#/	8r	dziec-	.
.	.	8f#L 8d#\	.	.
.	.	8b 8f#\	.	.
.	8dd#/	8bJ 8f#\	-kiem	.
=35	=35	=35	=35	=35
2G#\	(2ee/	8r	rzu-	.
.	.	8bL 8e\	.	.
.	.	8b 8e\	.	[
.	.	8bJ 8e\	.	.
2Gn\	8b/)	8r	-cił,	.
.	8r	8e\L	.	.
.	8b/L	8e\	te-	.
.	8b/J	8eJ 8B\	-raz	.
=36	=36	=36	=36	=36
2F#\	4.a#X/	8r	so-	>
.	.	8f#L 8c#\	.	.
.	.	8f# 8c#\	.	.
.	8a#/	8f#J 8c#\	-bież	.
2BB/)	4.an/	8r	wie-	.
.	.	8f#L 8c#\	.	.
.	.	8f# 8c#\	.	.
.	8a/	8f#J 8d#\	-rzyć	]
*	*v	*v	*	*
=37	=37	=37	=37
!LO:TUP:a:problem:klamra łukowa	!	!	!
12E\L	8g# 8e/	mam?	.
12G#\	.	.	.
.	8r	.	.
12B\J	.	.	.
!LO:TUP:a:problem:klamra łukowa	!	!	!
12BB\L	(2gg# 2g#^\	Ach	.
12G#\	.	.	.
12B\J	.	.	.
!LO:TUP:a:problem:klamra łukowa	!	!	!
12E\L	.	.	.
12G#\	.	.	.
12B\J	.	.	.
!LO:TUP:a:problem:klamra łukowa	!	!	!
12BB\L	8.aaL 8.a\	chy-	<
12G#\	.	.	.
12B\J	.	.	.
.	16aa#XJk 16a#X\)	-ba	.
!!LO:LB:g=original
=38	=38	=38	=38
!LO:TUP:a:problem:klamra łukowa	!	!	!
12E\L	(4bb 4b\	ku	.
12G#\	.	.	.
12B\J	.	.	.
!LO:TUP:a:problem:klamra łukowa	!	!	!
12BB\L	8.ccc#L 8.cc#\	mnie	.
12G#\	.	.	.
12B\J	.	.	.
.	16ddd#Jk 16dd#\	.	.
!LO:TUP:a:problem:klamra łukowa	!	!	!
12E\L	4eee 4ee\	li-	.
12G#\	.	.	.
12B\J	.	.	.
!LO:TUP:a:problem:klamra łukowa	!	!	!
12BB\L	8ddd#L 8dd#\	-ee	.
12G#\	.	.	.
.	8eeeJ 8ee\	.	[[
12B\J	.	.	.
=39	=39	=39	=39
!LO:TUP:a:problem:klamra łukowa	!	!	!
12D#\L	4ggg# 4gg#\	zwrócił	.
12A\	.	.	.
12B\J	.	.	.
!LO:TUP:a:problem:klamra łukowa	!	!	!
12BB\L	2fff# 2ff#\)	.	sf
12A\	.	.	.
12B\J	.	.	.
!LO:TUP:a:problem:klamra łukowa	!	!	!
12BB\L	.	.	.
12A\	.	.	.
12B\J	.	.	.
!LO:TUP:a:problem:klamra łukowa	!	!	!
12BB\L	(8.eeeL 8.ee\	spój-	.
12A\	.	.	.
12B\J	.	.	.
.	16ddd#Jk 16dd#\	-rzał	.
=40	=40	=40	=40
!LO:TUP:a:problem:klamra łukowa	!	!	!
12BB\L	4eee 4ee\	na	.
12D#\	.	.	.
12A\	.	.	.
12B\	8.ddd#L 8.dd#\)	.	.
12A\	.	.	.
12F#\J	.	.	.
.	16ccc#Jk 16cc#\	mnie	.
!LO:TUP:a:problem:klamra łukowa	!	!	!
12D#\L	4ccc# 4cc#\	a-	.
12F#\	.	.	.
12A\	.	.	.
12B\	8bbL 8b\	-nioł	.
12A\	.	.	.
.	16r	.	.
12F#\J	.	.	.
.	16aaJk 16a\	.	.
!!LO:LB:g=original
=41	=41	=41	=41
*	*^	*	*
8E\	8gg# 8g#\	2ryy	sam.	.
8r	8g#L 8e 8B'/	.	.	.
4r	8g# 8e 8B'/	.	.	.
.	8g#J 8e 8B'/	.	.	.
2E\	4r	8rc	.	.
.	.	8eL 8B\	.	.
.	8.g#/L	8d# 8B\	Lecz	.
.	.	8dnJ 8B\	.	.
.	16g#/Jk	.	ćoś	.
=42	=42	=42	=42	=42
2A\	4.a/	8r	zim-	.
.	.	8c#\L	.	.
.	.	8g# 8c#\	.	.
.	8a/	8gnJ 8c#\	-na	.
2F#\	4.a#X/	8r	o-	.
.	.	8gL 8c#\	.	.
.	.	8f# 8c#\	.	.
.	8a#/	8eJ 8c#\	-bo-	.
=43	=43	=43	=43	=43
2B\	4b/	8r	-jęt-	.
.	.	8d#\L	.	.
.	8b/	8a# 8d#\	-na,	.
.	8r	8anJ 8d#\	.	.
2D#\	4.b/	8r	słów-	.
.	.	8aL 8f#\	.	.
.	.	8a 8f#\	.	.
.	8b/	8aJ 8f#\	-ka	.
=44	=44	=44	=44	=44
2E\	4ccn/	8r	nie	.
.	.	8gnL 8e\	.	.
.	8b/L	8g 8e\	wy-	.
.	8cc/J	8gJ 8e\	.	.
2F#\	(4.ddn/	8r	-rzek-	.
.	.	8aL 8dn\	.	.
.	.	8a 8d\	.	.
.	8a/	8d\J	-ła	.
*	*v	*v	*	*
!!LO:LB:g=original
=45	=45	=45	=45
8r	8b\)	mi,	.
8Gn'\L	8bL 8gn 8d#'/	.	f
8G 8Dn'\	8dd# 8b 8g'/	.	.
8GJ 8BB'\	8ggnJ 8dd# 8g'/	.	.
8G 8GGn/	8bb 8gg 8dd#'\	.	.
8r	8r	.	.
4r	8dd#\L	drżą	.
.	8dd#\J	.	.
=46	=46	=46	=46
*	*^	*	*
!	!LO:TX:i:b:t=a piacere	!	!	!
2Gn 2Dn 2BB\	(4.ggn/	[2g#\	w ser-	sf
.	8ff#/)	.	-cu	.
4A 4E 4Cn\	(8ff#/L	2g#\]	wszyst-	.
.	8ee/	.	.	.
4A#X 4E 4C#X\	8dd#X/)	.	.	.
.	8ee/J	.	-kie	.
=47	=47	=47	=47	=47
*^	*	*	*	*
4B/	4Dn\	4.ddn/	4gn\	tęt-	.
4An/	4D#X\	.	4f#\	.	.
.	.	8ccn/	.	.	.
8G#/	8E\	8b/	8g\	-na,	.
8r	8ryy	8r	8ryy	.	.
4F##X/	4Cn\	8.a#X/L	4e\	a	.
.	.	16a#/Jk	.	w jej	.
*v	*v	*	*	*	*
=48	=48	=48	=48	=48
4G#X 4BB\	4b 4e/	2ryy	o-	.
4r	8a#X/L	.	.	.
.	8b/J	.	-ku	.
2B 2F# 2D# 2BB\	4.aa;/	2an\	przy-	.
.	8dd#/	.	-mus	.
*	*v	*v	*	*
!!LO:LB:g=original
=49	=49	=49	=49
8BL 8G# 8E'>\	8ee 8g#\	tkwi.	p
8B 8G# 8BB'>\	8r	.	.
8B 8G# 8E'>\	16e/LL	.	.
.	16g#/	.	.
8BJ 8G# 8BB'>\	16b/	.	.
.	16ee/JJ	.	.
8BL 8A 8F#\	8.gg#\L	.	.
8B 8A 8BB\	.	.	.
.	16ff#\Jk	.	.
8B 8A 8F#\	16ee\LL	.	.
.	16dd#\	.	.
8BJ 8A 8BB\	16cc#\	.	.
.	16dd#\JJ	.	.
=50!|:	=50!|:	=50!|:	=50!|:
*>B	*>B	*	*
8BL 8G# 8E\	8ee\L	.	.
8B 8G# 8BB\	8g#\J	.	.
.	8qa/	.	.
8B 8G# 8E\	16g#/LL	.	.
.	16f#/	.	.
8BJ 8G# 8BB\	16g#/	.	.
.	16a/JJ	.	.
8BL 8A 8D#\	8b/L	.	.
8B 8A 8BB\	8f#/J	.	.
8B 8A 8D#\	16g#/LL	.	.
.	16f#/	.	.
8BJ 8A 8BB\	16e/	.	.
.	16f#/JJ	.	.
=51	=51	=51	=51
8BL 8G# 8E\	4g#/	.	.
8B 8G# 8BB\	.	.	.
8B 8G# 8E\	16g#\LL	.	.
.	16b\	.	.
8BJ 8G# 8BB\	16ee\	.	.
.	16gg#\JJ	.	.
8BL 8A 8F#\	8.gg#\L	.	.
8B 8A 8BB\	.	.	.
.	16ff#\Jk	.	.
8B 8A 8F#\	16ee\LL	.	.
.	16dd#\	.	.
8BJ 8A 8BB\	16cc#\	.	.
.	16dd#\JJ	.	.
!!LO:PB:g=original
=52	=52	=52	=52
8BL 8G# 8E\	8ee\L	.	.
8B 8G# 8BB\	8g#\J	.	.
.	8qa/	.	.
8B 8G# 8E\	16g#/LL	.	.
.	16f#/	.	.
8BJ 8G# 8BB\	16g#/	.	.
.	16a/JJ	.	.
8BL 8A 8F#\	8b/L	.	.
8B 8A 8BB\	8d#/J	.	.
8B 8A 8F#\	16e/LL	.	.
.	16d#/	.	.
8BJ 8A 8BB\	16c#/	.	.
.	16d#/JJ	.	.
=53	=53	=53	=53
*^	*	*	*
8r	[2E\	8e/L	.	.
8c#/L	.	8ee 8e/	.	.
8B/	.	8dd# 8e/	.	.
8A/J	.	8cc#J 8e/	.	.
8G#/L	8E\L]	8bL 8e/	.	.
8c#/	8E\	8a 8e/	.	.
8B/	8E\	8g# 8e/	.	.
8A/J	8E\J	8f#J 8e/	.	.
=54	=54	=54	=54	=54
8G#/L	[2E\	8bL 8e/	.	.
8c#/	.	8ee 8e/	.	.
8B/	.	8dd# 8e/	.	.
8A/J	.	8cc#J 8e/	.	.
8G#/L	8E\L]	8bL 8e/	.	.
8c#/	8E\	8a 8e/	.	.
8B/	8E\	8g# 8e/	.	.
8A/J	8E\J	8bJ 8f#/	.	.
*v	*v	*	*	*
!!LO:LB:g=original
=55	=55	=55	=55
*	*^	*	*
*	*	*tremolo	*	*
!	!	!	!	!LO:HP:b:t=molto cresc.
16E\LL	2ee/	8bL 8g# 8e\	.	<
16D#\	.	.	.	.
16E\	.	8b 8g# 8e\	.	.
16D#\JJ	.	.	.	.
16E\LL	.	8b 8g# 8e\	.	.
16D#\	.	.	.	.
16E\	.	8bJ 8g# 8e\	.	.
16D#\JJ	.	.	.	.
16Dn/LL	2ff#/	8ddnL 8a 8f#\	.	.
16C#/	.	.	.	.
16D/	.	8dd 8a 8f#\	.	.
16C#/JJ	.	.	.	.
16D/LL	.	8dd 8a 8f#\	.	.
16C#/	.	.	.	.
16D/	.	8ddJ 8a 8f#\	.	.
16C#/JJ	.	.	.	.
*	*	*Xtremolo	*	*
=56	=56	=56	=56	=56
16Cn/LL	4.ggn/	8eeL 8ccn 8gn\	.	.
16BB/	.	.	.	.
16C/	.	8ee 8cc 8g\	.	.
16BB/JJ	.	.	.	.
16C/LL	.	8ee 8cc 8g\	.	.
16BB/	.	.	.	.
16C/	8gg/	8eeJ 8cc 8g\	.	.
16BB/JJ	.	.	.	.
16BB-X/LL	4.gg#X/	8ffnL 8ddn 8g#X\	.	.
16AA/	.	.	.	.
16BB-/	.	8ff 8dd 8g#\	.	.
16AA/JJ	.	.	.	.
16BB-/LL	.	8ff 8dd 8g#\	.	.
16AA/	.	.	.	.
16BB-/	8aa/	8ffJ 8dd 8a\	.	.
16AA/JJ	.	.	.	.
*	*v	*v	*	*
=57	=57	=57	=57
16GG#/LL	[2bb [2ee#X [2ddn [2b\	.	f
16BBn/	.	.	.
16Dn/	.	.	.
16E#X/JJ	.	.	.
16GG#/LL	.	.	.
16BB/	.	.	.
16D/	.	.	.
16E#/JJ	.	.	.
8GG#/	8bb]L 8ee#] 8dd] 8b\]	.	.
8AL 8AA^/	8aa 8ff# 8cc# 8a^\	.	.
8E# 8EE#X^/	8gg# 8dd 8b^\	.	.
8F#J 8FF#^/	8ff#J 8cc# 8a^\	.	.
!!LO:LB:g=original
=58	=58	=58	=58
8BB\L	16ff#\LL	.	.
.	16een\	.	.
8enJ 8B 8G#\	16dd#X\	.	.
.	16ee\JJ	.	.
8BB\L	8gg#\L	.	.
8eJ 8B 8G#\	8g#\J	.	.
8BB\L	16b/LL	.	.
.	16a/	.	.
8eJ 8c# 8F#\	16g#/	.	.
.	16a/JJ	.	.
8BB\L	8cc#/L	.	.
8BJ 8A 8F#\	8d#/J	.	.
=59	=59	=59	=59
*>B1	*>B1	*	*
8BL 8G# 8E\	4e/	.	.
8B 8G# 8BB\	.	.	.
8B 8G# 8E\	16g#\LL	.	.
.	16b\	.	.
8BJ 8G# 8BB\	16ee\	.	.
.	16gg#\JJ	.	.
8BL 8A 8F#\	8.gg#\L	.	.
8B 8A 8BB\	.	.	.
.	16ff#\Jk	.	.
8B 8A 8F#\	16ee\LL	.	.
.	16dd#\	.	.
8BJ 8A 8BB\	16cc#\	.	.
.	16dd#\JJ	.	.
=60:|!	=60:|!	=60:|!	=60:|!
*>B2	*>B2	*	*
*	*^	*	*
!	!	!	!	!LO:DY:b:t=f più mosso
8B 8G# 8E\	8e/	4ryy	.	f
8r	8r	.	.	.
4B#X 4BB#X^^\	4ff#^^/	16dd#\LL	.	.
.	.	16a\	.	.
.	.	16dd#\	.	.
.	.	16a\JJ	.	.
4c# 4C#^^\	4ee^^/	16cc#\LL	.	.
.	.	16g#\	.	.
.	.	16cc#\	.	.
.	.	16g#\JJ	.	.
4G# 4GG#^^/	4dd#^^/	16b#X\LL	.	.
.	.	16f#\	.	.
.	.	16b#\	.	.
.	.	16f#\JJ	.	.
!!LO:LB:g=original
=61	=61	=61	=61	=61
*>C	*>C	*>C	*	*
4A 4AA^^\	4cc#^^/	16a\LL	.	.
.	.	16e\	.	.
.	.	16a\	.	.
.	.	16e\JJ	.	.
4A#X 4AA#X^^\	4ff#^^/	16cc#\LL	.	.
.	.	16f#\	.	.
.	.	16cc#\	.	.
.	.	16f#\JJ	.	.
4B 4BB^^\	4ee^^/	16b\LL	.	.
.	.	16g#\	.	.
.	.	16b\	.	.
.	.	16g#\JJ	.	.
4BB 4BBB^^/	4ff#^^/	16dd#\LL	.	.
.	.	16an\	.	.
.	.	16dd#\	.	.
.	.	16a\JJ	.	.
=62	=62	=62	=62	=62
4E 4EE^^/	4gg#^^/	16ee\LL	.	.
.	.	16g#\	.	.
.	.	16ee\	.	.
.	.	16g#\JJ	.	.
4B#X 4BB#X^^\	4aa^^/	16ff#LL 16dd#\	.	.
.	.	16a\	.	.
.	.	16ff# 16dd#\	.	.
.	.	16a\JJ	.	.
4c# 4C#^^\	4gg#^^/	16ee\LL	.	.
.	.	16g#\	.	.
.	.	16ee\	.	.
.	.	16g#\JJ	.	.
4G# 4GG#^^/	4ff#^^/	16dd#LL 16b#X\	.	.
.	.	16f#\	.	.
.	.	16dd# 16b#\	.	.
.	.	16f#\JJ	.	.
=63	=63	=63	=63	=63
4A 4AA^^\	4ee^^/	16cc#\LL	.	.
.	.	16e\	.	.
.	.	16cc#\	.	.
.	.	16e\JJ	.	.
4A#X 4AA#X^^\	4ff#^^/	16ee\LL	.	.
.	.	16cc#\	.	.
.	.	16ee\	.	.
.	.	16cc#\JJ	.	.
4B 4BB^^\	4gg#^^/	16ee\LL	.	.
.	.	16b\	.	.
.	.	16ee\	.	.
.	.	16b\JJ	.	.
4BB 4BBB^^/	4ff#^^/	16dd#\LL	.	.
.	.	16an\	.	.
.	.	16dd#\	.	.
.	.	16a\JJ	.	.
*	*v	*v	*	*
!!LO:LB:g=original
=64	=64	=64	=64
(16G#LL 16E^\	(16eeLL 16g#^\	.	.
16B\	16b\	.	.
16G#\	16ee\	.	.
16E\JJ)	16gg#\JJ	.	.
8BL 8BB\	8ff#L 8dd# 8b 8a\)	.	.
8BJ 8F# 8D# 8BB'\	8bJ 8a\	.	.
(16E^\LL	(16gg#LL 16ee^\	.	.
16B\	16b\	.	.
16G#\	16ee\	.	.
16E\JJ)	16gg#\JJ	.	.
8BL 8BB\	8ff#L 8dd# 8b 8a\)	.	.
8BJ 8F# 8D# 8BB\	8bJ 8a\	.	.
=65	=65	=65	=65
(8E\L	(16gg#LL 16b\	.	.
.	16ee\	.	.
16E\L	16b\	.	.
16G#\JJ	16g#\JJ	.	.
8B\L)	16e/LL	.	.
.	16g#/	.	.
16G#'\L	16b/	.	.
16E\JJ	16ee/JJ	.	.
8B 8G# 8E 8BB\	4.gg# 4.b;\)	.	.
8r	.	.	.
8B 8A 8D# 8BB\	.	.	.
8r;	8ff# 8a\	.	.
=66	=66	=66	=66
8BL 8G# 8E\	8ee 8g#\	.	ff
8BJ 8G# 8BB\	8r	.	.
8BL 8G# 8E\	(16gg#\LL	.	.
.	16bb\	.	.
8BJ 8G# 8BB\	16eee\	.	.
.	16ggg#\JJ)	.	.
8BL 8F# 8D#\	8fff#'\L	.	.
8BJ 8F# 8BB\	8aaJ 8ff#'\	.	.
.	8qbb/	.	.
8BL 8F# 8D#\	(16aaLL 16ff#\	.	.
.	16gg#\	.	.
8BJ 8F# 8BB\	16aa 16ff#\	.	.
.	16bb\JJ)	.	.
!!LO:LB:g=original
=67	=67	=67	=67
8BL 8G# 8E\	8aaL 8ff#'\	.	.
8BJ 8G# 8BB\	8gg#J 8ee'\	.	.
8BL 8G# 8E\	(16gg#LL 16ee\	.	.
.	16ff#\	.	.
8BJ 8G# 8BB\	16gg# 16ee\	.	.
.	16aa\JJ	.	.
8BL 8F# 8D#\	8bbL 8ff#\)	.	.
8BJ 8F# 8BB\	8ff#J 8dd# 8b\	.	.
8BL 8F# 8D#\	(16gg#LL 16ee\	.	.
.	16ff# 16dd#\	.	.
8BJ 8F# 8BB\	16ee 16cc#\	.	.
.	16ff#JJ 16dd#\)	.	.
=68	=68	=68	=68
8BL 8G# 8E\	4gg# 4ee\	.	.
8BJ 8G# 8BB\	.	.	.
8BL 8G# 8E\	(16gg#\LL	.	.
.	16bb\	.	.
8BJ 8G# 8BB\	16eee\	.	.
.	16ggg#\JJ)	.	.
8BL 8F# 8D#\	8fff#'\L	.	.
8BJ 8F# 8BB\	8aaJ 8ff#'\	.	.
.	8qbb/	.	.
8BL 8F# 8D#\	(16aaLL 16ff#\	.	.
.	16gg#\	.	.
8BJ 8BB\	16aa 16ff#\	.	.
.	16bb\JJ)	.	.
=69	=69	=69	=69
8BL 8G# 8E/	8gg#L 8ee\	.	.
8B 8BB/	16b\L	.	.
.	16b\JJ	.	.
8G# 8GG#/	8eeL 8e\	.	.
8EJ 8EE/	8gg#J 8g#\	.	.
8BB 8BBB/	8bb 8b\	.	.
8r	8r	.	.
8B 8F# 8D# 8BB\	8dd# 8b 8a 8f#/	.	.
8r	8r	.	.
=70	=70	=70	=70
4E 4EE/	4ee 4b 4g# 4e/	.	.
4r	4r	.	.
2r	2r	.	.
==	==	==	==
*-	*-	*-	*-
!!!system-decoration: {(p1)}
!!!ENC: Andrzej Gręziak
!!!END: 2022-08-23
!!!ENC: Kamil Watkowski
!!!END: 2022-09-29
!!!RDF**kern: > = above
!!!RDF**kern: < = below!!!YEC: Copyright 2022 Narodowy Instytut Fryderyka Chopina (https://polishscores.org)
!!!YEM: License CC-BY-4.0 (https://creativecommons.org/licenses/by/4.0)
